X: 2
T: The Friendly Visit
R: hornpipe
M: 4/4
L: 1/8
K: Amaj
(3ABA EA cAce | dcBc defg | a2 ea fdBA | GABc dBGB |(3ABA EA cAce| dcBc defg | aecA EGBd | c2 A2 A2 :||: a2 ec Acea | f2 dB F3 f | g2 fe ^defa | gef^d e=dcB |(3ABA EA cAce | dcBc defg |aecA EGBd | c2 A2 A2 :|


Tune 32	Setting 26640

